X:241
T:The Crooked Horn'd Ewe
R:Strathspey
S:Rutherford's 24 Country Dances for 1758
Z:Transcribed by Bruce Olson
M:C
L:1/8
Q:1/4=156
K:G
DG2B AG "tr"FE/D/|DG2B cABG|ABcB AG "tr"FE/D/|DG2B AG/F/ G2::\
dg2a =fagf|dg2a fa g2|dg2a "tr"b(ag) a(g/f/)|\
d(g/a/) _ba/g/ (f/g/a/f/)g2|=(fefd) c_B "tr"A(G/F/)|\
Gd2c BA G2:|]

